src/components/Icon/svg-icon/main/station.svg

<svg xmlns="http://www.w3.org/2000/svg" width="24" height="24"><path fill="#677078" d="M3.24 6.15C2.51 6.43 2 7.17 2 8v12a2 2 0 002 2h16a2 2 0 002-2V8c0-1.11-.89-2-2-2H8.3l8.26-3.34L15.88 1 3.24 6.15zM7 20c-1.66 0-3-1.34-3-3s1.34-3 3-3 3 1.34 3 3-1.34 3-3 3zm13-8h-2v-2h-2v2H4V8h16v4z"/></svg>

<svg xmlns="http://www.w3.org/2000/svg" width="24" height="24" viewBox="0 0 24 24">
  <path fill="#677078" d="M3.24,6.15 C2.51,6.43 2,7.17 2,8 L2,20 C2,21.1 2.89,22 4,22 L20,22 C21.11,22 22,21.1 22,20 L22,8 C22,6.89 21.11,6 20,6 L8.3,6 L16.56,2.66 L15.88,1 L3.24,6.15 Z M7,20 C5.34,20 4,18.66 4,17 C4,15.34 5.34,14 7,14 C8.66,14 10,15.34 10,17 C10,18.66 8.66,20 7,20 Z M20,12 L18,12 L18,10 L16,10 L16,12 L4,12 L4,8 L20,8 L20,12 Z"/>
</svg>
